X:81
T: Maedchen und Hasel
N: Q0138D
O: Mitteleuropa, Deutschland (BRD) , Rheinland, Kr. Koeln, Sinthern
R: Ballade, verlorene Unschuld, Moral
M: 3/4
L: 1/16
K: G
G2 | G2B2B4A2G2 | F2A2A6
A2 | A2d2d6B2 | B2A2A6
AB | c2e2e3de4 | d2c2Bcded3
B | A2B2c4d4 | c4B4z2
